X: 37913
T: South Wind, The
R: waltz
M: 3/4
K: Gmajor
|:c2|B3 A G2|B3 c d|A6|A4 c2|
B3 A G2|E3 D E2|G4 G2|G 4:|
d|g4 g2|g3 f e2|d4 d2|d4 c2|"
B3 A G2|B3 c d2|A6|A4 d2|l
g3 a g2|g3 f e2|d4 d2|d4 c2|
B3 A G2|A c3 F2|G6|G4|

